X:5907
T:Gan Ainm
R:Reel
S:
H:
N:
D:?
Z:Adrian Scahill
M:4/4
L:1/8
K:A
E2CE A,ECE|Acef ecce|f2af ecAc|dBcA BAFA|\
E2CE A,ECE|Acef ecce|f2af ecAc|dfec A4:||\
ecc2 ecBc|ABce f3a|ecc2 ecAc|dfec B2(3fgf|\
ecc2 ecBc|ABce f3g|agfe fgaf|ecBc A4:||\


